X:1
T:Poor Little Girls of Ontario
M:4/4
L:1/4
K:E
 B| e e/2e/2 f g| e g f B| e e/2e/2 f g/2g/2| e g f| B| e/2 e3/2 f g|\
 a g f e| d B c d| e e e| z| c3/2 d/2 c B| c d e z| B/2 B c/2B/2 B/2 A|\
 G A B| z| c d c/2c/2 B| c d e f/2f/2| g e/2e/2 f d/2d/2| e e e||
